src/components/Icon/assets/face-angry.svg

<svg width="24" height="24" viewBox="0 0 24 24" fill="none" xmlns="http://www.w3.org/2000/svg">
<path fill-rule="evenodd" clip-rule="evenodd" d="M4.00018 12.0001C4.00018 16.4111 7.58918 20.0001 12.0002 20.0001C16.4112 20.0001 20.0002 16.4111 20.0002 12.0001C20.0002 7.58912 16.4112 4.00012 12.0002 4.00012C7.58918 4.00012 4.00018 7.58912 4.00018 12.0001ZM2.00018 12.0001C2.00018 6.47812 6.47718 2.00012 12.0002 2.00012C17.5222 2.00012 22.0002 6.47812 22.0002 12.0001C22.0002 17.5221 17.5222 22.0001 12.0002 22.0001C6.47718 22.0001 2.00018 17.5221 2.00018 12.0001ZM9.81757 10.9257V10.9347C9.81757 12.5427 9.43757 13.1997 8.52857 13.1997C7.61957 13.1997 7.23957 12.5427 7.23957 10.9347C7.23957 10.4047 7.28557 9.98674 7.37457 9.65274L6.13257 9.00474C5.64357 8.74974 5.45357 8.14574 5.70857 7.65674C5.96357 7.16574 6.56757 6.97674 7.05757 7.23174L10.8246 9.19574C11.3146 9.45074 11.5046 10.0547 11.2496 10.5437C11.0706 10.8867 10.7226 11.0817 10.3616 11.0817C10.2056 11.0817 10.0476 11.0457 9.90057 10.9687L9.81757 10.9257ZM12.006 13.7081H12.004C9.77198 13.7081 8.66598 15.0341 8.36398 15.8181C8.16998 16.3231 8.41998 16.8781 8.91998 17.0861C9.41998 17.2981 9.99998 17.0531 10.222 16.5591C10.261 16.4721 10.643 15.7081 12.003 15.7081H12.005C13.344 15.7091 13.73 16.4541 13.776 16.5551C13.933 16.9401 14.306 17.1771 14.702 17.1771C14.821 17.1771 14.942 17.1551 15.06 17.1101C15.575 16.9131 15.833 16.3351 15.635 15.8191C15.336 15.0361 14.234 13.7101 12.006 13.7081ZM16.9422 7.23133C17.4322 6.97533 18.0362 7.16533 18.2912 7.65633C18.5462 8.14533 18.3562 8.75033 17.8672 9.00533L16.5982 9.66633C16.6842 9.99833 16.7292 10.4113 16.7292 10.9343C16.7292 12.5433 16.3492 13.1993 15.4402 13.1993C14.5332 13.1993 14.1532 12.5443 14.1522 10.9413L14.1002 10.9693C13.9522 11.0463 13.7942 11.0823 13.6382 11.0823C13.2772 11.0823 12.9292 10.8863 12.7502 10.5443C12.4952 10.0543 12.6852 9.45033 13.1752 9.19533L16.9422 7.23133Z" fill="#65676A"/>
</svg>

<svg xmlns="http://www.w3.org/2000/svg" width="24" height="24" viewBox="0 0 24 24">
    <path fill="#65676A" fill-rule="evenodd" d="M12 2c5.522 0 10 4.478 10 10s-4.478 10-10 10C6.477 22 2 17.522 2 12S6.477 2 12 2zm0 2c-4.41 0-8 3.59-8 8 0 4.411 3.59 8 8 8 4.411 0 8-3.589 8-8 0-4.41-3.589-8-8-8zm.006 9.708c2.228.002 3.33 1.328 3.629 2.111.198.516-.06 1.094-.575 1.291-.118.045-.239.067-.358.067-.396 0-.769-.237-.926-.622-.046-.1-.432-.846-1.771-.847-1.362 0-1.744.764-1.783.851-.222.494-.802.74-1.302.527-.5-.208-.75-.763-.556-1.268.302-.784 1.408-2.11 3.64-2.11zM5.709 7.657c.255-.491.859-.68 1.349-.425l3.767 1.964c.49.255.68.859.425 1.348-.18.343-.527.538-.888.538-.156 0-.314-.036-.461-.113l-.083-.043c0 1.617-.38 2.274-1.29 2.274-.908 0-1.288-.657-1.288-2.265 0-.53.046-.948.135-1.282l-1.242-.648c-.49-.255-.68-.86-.424-1.348zm11.233-.426c.49-.256 1.094-.066 1.35.425.254.49.064 1.094-.425 1.35l-1.269.66c.086.332.131.745.131 1.268 0 1.61-.38 2.265-1.289 2.265-.907 0-1.287-.655-1.288-2.258l-.052.028c-.148.077-.306.113-.462.113-.36 0-.709-.196-.888-.538-.255-.49-.065-1.094.425-1.349z"/>
</svg>
